flaticon/transportation/train-1.svg

<svg xmlns="http://www.w3.org/2000/svg" width="32" height="32" viewBox="0 0 24 24">
    <path d="M 23.640625 13.8125 C 23.640625 9.011719 19.734375 5.105469 14.933594 5.105469 L 0.171875 5.105469 L 0.171875 14.347656 L 23.640625 14.347656 Z M 21.015625 9.195312 L 17.085938 9.195312 C 15.527344 9.195312 14.261719 7.925781 14.261719 6.371094 L 14.261719 6.171875 L 14.933594 6.171875 C 17.414062 6.171875 19.617188 7.359375 21.015625 9.195312 Z M 1.238281 13.28125 L 1.238281 6.171875 L 13.195312 6.171875 L 13.195312 6.371094 C 13.195312 8.515625 14.9375 10.261719 17.085938 10.261719 L 21.695312 10.261719 C 22.179688 11.171875 22.480469 12.195312 22.554688 13.28125 Z M 1.238281 13.28125"/>
    <path d="M4.347656 7.722656L7.203125 10.578125 6.449219 11.332031 3.59375 8.476562zM8.144531 8.476562L11.003906 11.332031 11.757812 10.578125 8.898438 7.722656zM2.953125 15.730469L3.851562 15.15625 4.421875 16.046875 3.519531 16.621094zM7.429688 16.621094L8.332031 16.046875 7.761719 15.15625 6.863281 15.730469zM11.339844 16.621094L12.242188 16.046875 11.671875 15.15625 10.773438 15.730469zM15.25 16.621094L16.152344 16.046875 15.582031 15.15625 14.683594 15.730469zM19.160156 16.621094L20.0625 16.046875 19.492188 15.15625 18.59375 15.730469zM0 17.828125L24 17.828125 24 18.894531 0 18.894531zM0 17.828125"/>
</svg>

<svg xmlns="http://www.w3.org/2000/svg" width="32" height="32" viewBox="0 0 24 24">
    <path d="M23.64 13.813c0-4.801-3.906-8.708-8.706-8.708H.172v9.243H23.64zm-2.624-4.618h-3.93a2.828 2.828 0 0 1-2.824-2.824v-.2h.672a7.63 7.63 0 0 1 6.082 3.024zM1.238 13.281v-7.11h11.957v.2a3.894 3.894 0 0 0 3.89 3.89h4.61c.485.91.785 1.934.86 3.02zm0 0"/>
    <path d="M4.348 7.723l2.855 2.855-.754.754-2.855-2.855zm3.797.754l2.859 2.855.754-.754-2.86-2.855zm0 0M2.953 15.73l.899-.574.57.89-.902.575zm4.477.891l.902-.574-.57-.89-.899.573zm3.91 0l.902-.574-.57-.89-.899.573zm3.91 0l.902-.574-.57-.89-.898.573zm3.91 0l.902-.574-.57-.89-.898.573zm0 0M0 17.828h24v1.067H0zm0 0"/>
</svg>
